X:1
T:Title
%%score { ( 1 3 ) | 2 }
L:1/8
M:6/8
K:G
V:1 treble nm="Grand Piano"
V:3 treble 
V:2 bass 
V:1
 z3 z2[Q:1/4=93] D | [DB]2 [DB] [Ec]2 [DB] | [B,G]2 [CG] [B,G]2 [GB] | [FA]2 [FA] [FA][GB][Ac] | %4
 B3- B2 d | d2 d e2 d | B2 B B2 [DG] | [FA]2 [FA] [Fc]2 B | G3- G2 G | z3 .A3 | %10
 [CE]2 [B,D] [B,D]2 G | [FA]2 [FA] [FA][EG][FA] |[M:7/8] B2 d d3 d |[M:3/4] d2 d e2 d | %14
 B2 B B2 [DG] | [FA]2 [FA] [Fc]2 B | [B,DG]6 | B3 G2 A | B2 D G3 | [FA]3 [Ac] [GB][FA] | %20
[M:7/8] B2 d d3 d |[M:3/4] d2 d e2 d | B2 B B2 [DG] |[M:7/8] [FA]2 [FA] [Fc]3 [DB] | %24
[M:3/4] [G,B,DG]6 |] %25
V:2
 z3 z2 D, | [G,,G,]2 [G,,G,] [G,,G,]2 [G,,G,] | [G,,D,]2 [G,,E,] [G,,D,]2 [G,D] | %3
 [D,D]2 [D,D] [D,D]2 [D,D] | [G,DG]3- [G,DG]2 [G,B,G] | [G,B,G]2 [G,B,G] [G,CG]2 [G,B,G] | %6
 [G,DG]2 [G,DG] [G,DG]2[K:bass] B,, | [D,D]2 [D,D] [D,A,]2 [D,D] | [G,B,D]3- [G,B,D]2 [G,B,D] | %9
 [C,C]2 [C,C] [C,C]2 [C,G,C] | [G,,G,]2 [G,,G,] [G,,G,]2 [G,B,] | [D,D]2 [D,D] [D,D]2 [D,D] | %12
[M:7/8][K:treble] [G,DG]2 [G,B,G] [G,B,G]3 [G,B,G] |[M:3/4] [G,B,G]2 [G,B,G] [G,CG]2 [G,B,G] | %14
 [G,DG]2 [G,DG] [G,DG]2[K:bass] B,, | [D,D]2 [D,D] [D,A,]2 [D,D] | [G,,G,]6 | %17
 [G,DG]3 [G,B,D]2 [G,CD] | [G,DG]2 [G,B,][K:bass] [G,B,D]3 | [D,D]3 [D,D]2 [D,D] | %20
[M:7/8][K:treble] [G,DG]2 [G,B,G] [G,B,G]3 [G,B,G] |[M:3/4] [G,B,G]2 [G,B,G] [G,CG]2 [G,B,G] | %22
 [G,DG]2 [G,DG] [G,DG]2[K:bass] B,, |[M:7/8] [D,D]2 [D,D] [D,A,]3 D, |[M:3/4] G,,6 |] %25
V:3
 x6 | x6 | x6 | x6 | x6 | x6 | x6 | x6 | x6 | [EG]2 [EG] E-[EG]E | x6 | x6 |[M:7/8] x7 | %13
[M:3/4] x6 | x6 | x6 | x6 | x6 | x6 | x6 |[M:7/8] x7 |[M:3/4] x6 | x6 |[M:7/8] x7 |[M:3/4] x6 |] %25

